icons/svg/icons8/library.svg

<svg width="26" height="26" viewBox="0 0 26 26" fill="none" xmlns="http://www.w3.org/2000/svg">
<g clip-path="url(#clip0)">
<path d="M6 11C6 11.551 5.551 12 5 12H2C1.449 12 1 11.551 1 11V10H6V11Z" fill="#333333"/>
<path d="M5 20H2V11C2 10.449 2.449 10 3 10H4C4.551 10 5 10.449 5 11V20Z" fill="#333333"/>
<path d="M12 11C12 11.551 11.551 12 11 12H8C7.449 12 7 11.551 7 11V10H12V11Z" fill="#333333"/>
<path d="M11 20H8V11C8 10.449 8.449 10 9 10H10C10.551 10 11 10.449 11 11V20Z" fill="#333333"/>
<path d="M18 11C18 11.551 17.551 12 17 12H14C13.449 12 13 11.551 13 11V10H18V11Z" fill="#333333"/>
<path d="M17 20H14V11C14 10.449 14.449 10 15 10H16C16.551 10 17 10.449 17 11V20Z" fill="#333333"/>
<path d="M24 11C24 11.551 23.551 12 23 12H20C19.449 12 19 11.551 19 11V10H24V11Z" fill="#333333"/>
<path d="M23 20H20V11C20 10.449 20.449 10 21 10H22C22.551 10 23 10.449 23 11V20Z" fill="#333333"/>
<path d="M3 24C2.449 24 2 23.551 2 23V21H23C23 21 23 22.75 23 23C23 23.551 22.551 24 22 24H3Z" fill="#333333"/>
<path d="M1 26C0.449 26 0 25.551 0 25V24C0 23.449 0.449 23 1 23H24C24.551 23 25 23.449 25 24V25C25 25.551 24.551 26 24 26H1Z" fill="#333333"/>
<path d="M24.3992 7.07201L12.9752 0.136012C12.6762 -0.0459883 12.3052 -0.0459883 12.0062 0.136012L0.477218 7.13601C0.102218 7.36401 -0.0797817 7.82501 0.0332183 8.26101C0.146218 8.69701 0.526218 9.00001 0.961218 9.00001H24.0202C24.0282 9.00001 24.0362 9.00001 24.0402 9.00001C24.5702 9.00001 25.0002 8.55301 25.0002 8.00001C25.0002 7.58001 24.7522 7.22101 24.3992 7.07201ZM12.5002 7.64901C11.3122 7.64901 10.3512 6.68801 10.3512 5.50001C10.3512 4.31201 11.3122 3.35101 12.5002 3.35101C13.6882 3.35101 14.6492 4.31301 14.6492 5.50001C14.6492 6.68801 13.6882 7.64901 12.5002 7.64901Z" fill="#333333"/>
</g>
<defs>
<clipPath id="clip0">
<rect width="26" height="26" fill="white"/>
</clipPath>
</defs>
</svg>

<?xml version="1.0" encoding="utf-8"?>
<!-- Generator: Adobe Illustrator 15.0.0, SVG Export Plug-In . SVG Version: 6.00 Build 0)  -->
<!DOCTYPE svg PUBLIC "-//W3C//DTD SVG 1.1//EN" "http://www.w3.org/Graphics/SVG/1.1/DTD/svg11.dtd">
<svg version="1.1" id="Layer_1" xmlns="http://www.w3.org/2000/svg" xmlns:xlink="http://www.w3.org/1999/xlink" x="0px" y="0px"
	 width="26px" height="26px" viewBox="0 0 26 26" enable-background="new 0 0 26 26" xml:space="preserve">
<rect fill="none" width="26" height="26"/>
<path fill="#333333" d="M6,11c0,0.551-0.449,1-1,1H2c-0.551,0-1-0.449-1-1v-1h5V11z"/>
<path fill="#333333" d="M5,20H2v-9c0-0.551,0.449-1,1-1h1c0.551,0,1,0.449,1,1V20z"/>
<path fill="#333333" d="M12,11c0,0.551-0.449,1-1,1H8c-0.551,0-1-0.449-1-1v-1h5V11z"/>
<path fill="#333333" d="M11,20H8v-9c0-0.551,0.449-1,1-1h1c0.551,0,1,0.449,1,1V20z"/>
<path fill="#333333" d="M18,11c0,0.551-0.449,1-1,1h-3c-0.551,0-1-0.449-1-1v-1h5V11z"/>
<path fill="#333333" d="M17,20h-3v-9c0-0.551,0.449-1,1-1h1c0.551,0,1,0.449,1,1V20z"/>
<path fill="#333333" d="M24,11c0,0.551-0.449,1-1,1h-3c-0.551,0-1-0.449-1-1v-1h5V11z"/>
<path fill="#333333" d="M23,20h-3v-9c0-0.551,0.449-1,1-1h1c0.551,0,1,0.449,1,1V20z"/>
<path fill="#333333" d="M3,24c-0.551,0-1-0.449-1-1v-2h21c0,0,0,1.75,0,2c0,0.551-0.449,1-1,1H3z"/>
<path fill="#333333" d="M1,26c-0.551,0-1-0.449-1-1v-1c0-0.551,0.449-1,1-1h23c0.551,0,1,0.449,1,1v1c0,0.551-0.449,1-1,1H1z"/>
<path fill="#333333" d="M24.399,7.072L12.975,0.136c-0.299-0.182-0.67-0.182-0.969,0l-11.529,7C0.102,7.364-0.08,7.825,0.033,8.261
	C0.146,8.697,0.526,9,0.961,9H24.02c0.008,0,0.016,0,0.02,0C24.57,9,25,8.553,25,8C25,7.58,24.752,7.221,24.399,7.072z M12.5,7.649
	c-1.188,0-2.149-0.961-2.149-2.149c0-1.188,0.961-2.149,2.149-2.149s2.149,0.962,2.149,2.149C14.649,6.688,13.688,7.649,12.5,7.649z
	"/>
</svg>
